images/icon/menu_movie.svg

<svg width="20" height="20" viewBox="0 0 20 20" fill="none" xmlns="http://www.w3.org/2000/svg">
<path d="M18.8978 10.1214C18.7139 9.79453 18.2848 9.67194 17.9375 9.87626L15.6082 11.2248L15.0156 11.5721V14.8005L15.5673 15.1274C15.5877 15.1274 15.5877 15.1478 15.6082 15.1478L17.8966 16.4759C17.9987 16.5576 18.1418 16.5985 18.2848 16.5985C18.673 16.5985 18.9795 16.292 18.9795 15.9038V13.1659L18.9999 10.4688C18.9999 10.3462 18.9795 10.2236 18.8978 10.1214Z" fill="#F57062"/>
<path d="M13.626 9.26292C13.0948 9.52854 12.5023 9.692 11.8689 9.692C11.0924 9.692 10.3569 9.46724 9.74389 9.05859H7.4146C6.80163 9.46724 6.06607 9.692 5.28964 9.692C4.65624 9.692 4.0637 9.54897 3.53246 9.26292C3.06251 9.52854 2.7356 10.0598 2.7356 10.6319V15.6174C2.7356 16.5368 3.49159 17.2724 4.39062 17.2724H12.7883C13.7078 17.2724 14.4433 16.5164 14.4433 15.6174V10.6319C14.4229 10.0598 14.096 9.52854 13.626 9.26292Z" fill="#F57062"/>
<path fill-rule="evenodd" clip-rule="evenodd" d="M15.1586 5.78961C15.1586 7.60809 13.6874 9.07922 11.869 9.07922C10.056 9.07922 8.58834 7.61707 8.57939 5.80627C8.57095 7.61752 7.10306 9.08019 5.28982 9.08019C3.47134 9.08019 1.97978 7.60906 2.00021 5.79058C2.00021 3.97211 3.47134 2.50098 5.28982 2.50098C7.10273 2.50098 8.57043 3.96313 8.57938 5.77392C8.58782 3.96267 10.0557 2.5 11.869 2.5C13.6874 2.5 15.1586 3.97113 15.1586 5.78961Z" fill="#F57062"/>
<path d="M8.57939 5.80627L8.96938 5.80435L8.18939 5.80446L8.57939 5.80627ZM2.00021 5.79058L2.39021 5.79497V5.79058H2.00021ZM8.57938 5.77392L8.18939 5.77585L8.96938 5.77573L8.57938 5.77392ZM11.869 9.46922C13.9028 9.46922 15.5486 7.82348 15.5486 5.78961H14.7686C14.7686 7.3927 13.472 8.68922 11.869 8.68922V9.46922ZM8.18939 5.8082C8.19941 7.83353 9.84129 9.46922 11.869 9.46922V8.68922C10.2708 8.68922 8.97728 7.4006 8.96938 5.80435L8.18939 5.8082ZM5.28982 9.47019C7.31784 9.47019 8.95995 7.83392 8.96938 5.80809L8.18939 5.80446C8.18196 7.40112 6.88828 8.69019 5.28982 8.69019V9.47019ZM1.61023 5.7862C1.5873 7.82749 3.25999 9.47019 5.28982 9.47019V8.69019C3.68268 8.69019 2.37225 7.39064 2.39018 5.79497L1.61023 5.7862ZM5.28982 2.11098C3.25595 2.11098 1.61021 3.75671 1.61021 5.79058H2.39021C2.39021 4.1875 3.68673 2.89098 5.28982 2.89098V2.11098ZM8.96938 5.77199C8.95936 3.74666 7.31747 2.11098 5.28982 2.11098V2.89098C6.88799 2.89098 8.18149 4.17959 8.18939 5.77585L8.96938 5.77199ZM11.869 2.11C9.84093 2.11 8.19882 3.74627 8.18939 5.7721L8.96938 5.77573C8.97681 4.17908 10.2705 2.89 11.869 2.89V2.11ZM15.5486 5.78961C15.5486 3.75574 13.9028 2.11 11.869 2.11V2.89C13.472 2.89 14.7686 4.18652 14.7686 5.78961H15.5486Z" fill="#FCFCFC"/>
</svg>

<svg width="20" height="20" fill="none" xmlns="http://www.w3.org/2000/svg"><path d="M18.898 10.121a.694.694 0 00-.96-.245l-2.33 1.349-.592.347v3.229l.551.326c.02 0 .02.02.041.02l2.289 1.329a.629.629 0 00.388.123.689.689 0 00.695-.695v-2.738l.02-2.697a.535.535 0 00-.102-.348zm-5.272-.858a3.915 3.915 0 01-1.757.429 3.82 3.82 0 01-2.125-.633h-2.33a3.82 3.82 0 01-2.124.633 3.666 3.666 0 01-1.758-.43 1.6 1.6 0 00-.796 1.37v4.985c0 .92.756 1.655 1.655 1.655h8.397a1.66 1.66 0 001.655-1.655v-4.985a1.662 1.662 0 00-.817-1.37z" fill="#F57062"/><path fill-rule="evenodd" clip-rule="evenodd" d="M15.159 5.79a3.288 3.288 0 01-3.29 3.29 3.287 3.287 0 01-3.29-3.274A3.287 3.287 0 015.29 9.08C3.472 9.08 1.98 7.61 2 5.79a3.287 3.287 0 013.29-3.289 3.287 3.287 0 013.29 3.273A3.287 3.287 0 0111.868 2.5a3.288 3.288 0 013.29 3.29z" fill="#F57062"/><path d="M8.58 5.806l.39-.002h-.78l.39.002zM2 5.791l.39.004v-.004H2zm6.58-.017l-.39.002h.78l-.39-.002zm3.289 3.695a3.678 3.678 0 003.68-3.68h-.78c0 1.604-1.297 2.9-2.9 2.9v.78zm-3.68-3.66a3.677 3.677 0 003.68 3.66v-.78a2.897 2.897 0 01-2.9-2.885l-.78.004zM5.29 9.47a3.677 3.677 0 003.68-3.662l-.78-.004a2.897 2.897 0 01-2.9 2.886v.78zM1.61 5.786C1.587 7.827 3.26 9.47 5.29 9.47v-.78c-1.607 0-2.918-1.3-2.9-2.895l-.78-.009zm3.68-3.675a3.677 3.677 0 00-3.68 3.68h.78c0-1.604 1.297-2.9 2.9-2.9v-.78zm3.68 3.661a3.677 3.677 0 00-3.68-3.661v.78a2.897 2.897 0 012.9 2.885l.78-.004zm2.899-3.662a3.677 3.677 0 00-3.68 3.662l.78.004a2.897 2.897 0 012.9-2.886v-.78zm3.68 3.68a3.678 3.678 0 00-3.68-3.68v.78c1.603 0 2.9 1.297 2.9 2.9h.78z" fill="#FCFCFC"/></svg>
